X:1
T:Aquarium (Carnival of the Animals)
C:Camille Saint-Saëns
M:4/4
L:1/8
Q:1/4=76
K:G
% Flowing, shimmering glass-harmonica melody — G4-D5
F2 G2 A2 B2 | c2 B2 A2 G2 | B4 c4 | d4 c2 B2 |
A2 B2 c2 d2 | c2 B2 A2 G2 | A2 G2 B4 | G8 |]
